X:1
T:Go Down You Murderers
M:4/4
L:1/4
K:G
 B,| E E E F| E D B, A,| D D F/2 G3/2| A2 z B| E E E3/2 F/2|E/2-D/2 B, A, G,|\
 D D D3/2 B,/2| A,2 B,/2B,/2 D| E3 G| A3/2 G/2 F D| E2 z||

